symbols/web/person_remove/materialsymbolsoutlined/person_remove_wght300grad200_48px.svg

<svg xmlns="http://www.w3.org/2000/svg" height="48" width="48"><path d="M32.5 20.85V17.9h11.45v2.95ZM18 23.05q-3.15 0-5.175-2t-2.025-5.2q0-3.15 2.025-5.15 2.025-2 5.175-2t5.175 2q2.025 2 2.025 5.15 0 3.2-2.025 5.2t-5.175 2ZM2.25 40.1v-4.55q0-1.7.85-3.05.85-1.35 2.4-2.05 3.55-1.6 6.525-2.275Q15 27.5 18 27.5q3 0 5.95.675t6.5 2.275q1.55.75 2.425 2.075.875 1.325.875 3.025v4.55Zm2.9-2.9h25.7v-1.65q0-.75-.425-1.425T29.25 33.1Q26 31.6 23.4 31q-2.6-.6-5.4-.6-2.8 0-5.425.6T6.75 33.1q-.75.35-1.175 1.025-.425.675-.425 1.425ZM18 20.15q1.8 0 3.025-1.225Q22.25 17.7 22.25 15.85q0-1.8-1.225-3.025Q19.8 11.6 18 11.6q-1.8 0-3.025 1.225-1.225 1.225-1.225 3.025 0 1.85 1.225 3.075T18 20.15Zm0-4.3Zm0 14.55Z"/></svg>

<svg xmlns="http://www.w3.org/2000/svg" height="48" width="48"><path d="M32.5 20.85V17.9H43.95V20.85ZM18 23.05Q14.85 23.05 12.825 21.05Q10.8 19.05 10.8 15.85Q10.8 12.7 12.825 10.7Q14.85 8.7 18 8.7Q21.15 8.7 23.175 10.7Q25.2 12.7 25.2 15.85Q25.2 19.05 23.175 21.05Q21.15 23.05 18 23.05ZM2.25 40.1V35.55Q2.25 33.85 3.1 32.5Q3.95 31.15 5.5 30.45Q9.05 28.85 12.025 28.175Q15 27.5 18 27.5Q21 27.5 23.95 28.175Q26.9 28.85 30.45 30.45Q32 31.2 32.875 32.525Q33.75 33.85 33.75 35.55V40.1ZM5.15 37.2H30.85V35.55Q30.85 34.8 30.425 34.125Q30 33.45 29.25 33.1Q26 31.6 23.4 31Q20.8 30.4 18 30.4Q15.2 30.4 12.575 31Q9.95 31.6 6.75 33.1Q6 33.45 5.575 34.125Q5.15 34.8 5.15 35.55ZM18 20.15Q19.8 20.15 21.025 18.925Q22.25 17.7 22.25 15.85Q22.25 14.05 21.025 12.825Q19.8 11.6 18 11.6Q16.2 11.6 14.975 12.825Q13.75 14.05 13.75 15.85Q13.75 17.7 14.975 18.925Q16.2 20.15 18 20.15ZM18 15.85Q18 15.85 18 15.85Q18 15.85 18 15.85Q18 15.85 18 15.85Q18 15.85 18 15.85Q18 15.85 18 15.85Q18 15.85 18 15.85Q18 15.85 18 15.85Q18 15.85 18 15.85ZM18 30.4Q18 30.4 18 30.4Q18 30.4 18 30.4Q18 30.4 18 30.4Q18 30.4 18 30.4Q18 30.4 18 30.4Q18 30.4 18 30.4Q18 30.4 18 30.4Q18 30.4 18 30.4Z"/></svg>
